svg/facebook.svg

<svg width="24" height="24" viewBox="0 0 24 24" fill="none" xmlns="http://www.w3.org/2000/svg">
<path fill-rule="evenodd" clip-rule="evenodd" d="M12 2C17.5224 2 22 6.47757 22 12C22 16.9923 18.3437 21.1295 13.5624 21.8791V14.8913H15.8923H15.8926L16.3355 12H16.3352H13.5624V10.124C13.5624 9.34467 13.9385 8.58575 15.1347 8.56223C15.1535 8.56186 15.1726 8.56167 15.1919 8.56166C15.192 8.56166 15.1921 8.56167 15.1922 8.56167L16.4534 8.56166L16.4537 8.56167V6.10069C16.4537 6.10069 15.4476 5.92889 14.4203 5.90741C14.3518 5.90598 14.2833 5.90522 14.2149 5.90522C14.2148 5.90522 14.2147 5.90522 14.2146 5.90522C11.9308 5.90522 10.4373 7.28899 10.4373 9.79637V12H7.8979H7.89761V14.8913H7.8979H10.4373V21.879C5.65616 21.1279 2 16.9908 2 12C2 6.47757 6.47757 2 12 2Z" fill="#F0F3F5"/>
</svg>

<?xml version="1.0" encoding="utf-8"?>
<!-- Generator: Adobe Illustrator 24.1.3, SVG Export Plug-In . SVG Version: 6.00 Build 0)  -->
<svg version="1.1" id="Capa_1" xmlns="http://www.w3.org/2000/svg" xmlns:xlink="http://www.w3.org/1999/xlink" x="0px" y="0px"
	 viewBox="0 0 24 24" style="enable-background:new 0 0 24 24;" xml:space="preserve">
<style type="text/css">
	.st0{fill-rule:evenodd;clip-rule:evenodd;fill:#2C3C9D;}
</style>
<path class="st0" d="M12,2c5.5,0,10,4.5,10,10c0,5-3.7,9.1-8.4,9.9v-7h2.3l0,0l0.4-2.9l0,0h-2.8v-1.9c0-0.8,0.4-1.5,1.6-1.6
	c0,0,0,0,0.1,0l0,0h1.3l0,0V6.1c0,0-1-0.2-2-0.2c-0.1,0-0.1,0-0.2,0l0,0c-2.3,0-3.8,1.4-3.8,3.9V12H7.9l0,0v2.9l0,0h2.5v7
	C5.7,21.1,2,17,2,12C2,6.5,6.5,2,12,2z"/>
</svg>
